images/svg/004-percentage.svg

<svg id="Layer_1" enable-background="new 0 0 512 512" height="512" viewBox="0 0 512 512" width="512" xmlns="http://www.w3.org/2000/svg"><g><path d="m80 256c0-120.176 89.826-219.372 206-234.11-9.824-1.247-19.837-1.89-30-1.89-130.339 0-236 105.661-236 236s105.661 236 236 236c10.163 0 20.176-.643 30-1.89-116.174-14.738-206-113.934-206-234.11z" fill="#6f6f6f"/><path d="m492 137c-11.046 0-20-8.954-20-20v-57c0-11.028-8.972-20-20-20h-56c-11.046 0-20-8.954-20-20s8.954-20 20-20h56c33.084 0 60 26.916 60 60v57c0 11.046-8.954 20-20 20zm-314.858 225.142 259-259c7.811-7.811 7.811-20.474 0-28.284s-20.474-7.811-28.284 0l-259 259c-7.811 7.811-7.811 20.474 0 28.284 3.905 3.905 9.023 5.858 14.142 5.858s10.237-1.953 14.142-5.858z" fill="#D63447"/><path d="m336 401c-33.084 0-60-26.916-60-60s26.916-60 60-60 60 26.916 60 60-26.916 60-60 60zm0-80c-11.028 0-20 8.972-20 20s8.972 20 20 20 20-8.972 20-20-8.972-20-20-20zm-160-90c-33.084 0-60-26.916-60-60s26.916-60 60-60 60 26.916 60 60-26.916 60-60 60zm0-80c-11.028 0-20 8.972-20 20s8.972 20 20 20 20-8.972 20-20-8.972-20-20-20zm261.02 286.019c48.351-48.352 74.98-112.639 74.98-181.019 0-21.661-2.714-43.189-8.066-63.985-2.753-10.698-13.66-17.139-24.354-14.384-10.697 2.753-17.137 13.657-14.384 24.354 4.515 17.541 6.804 35.715 6.804 54.015 0 119.103-96.897 216-216 216s-216-96.897-216-216 96.897-216 216-216c18.594 0 37.075 2.373 54.929 7.053 10.687 2.799 21.617-3.591 24.417-14.276s-3.591-21.617-14.276-24.417c-21.162-5.547-43.055-8.36-65.07-8.36-68.38 0-132.667 26.629-181.02 74.98-48.351 48.353-74.98 112.64-74.98 181.02s26.629 132.667 74.98 181.019c48.353 48.352 112.64 74.981 181.02 74.981s132.667-26.629 181.02-74.981z" fill="#515151"/></g></svg>

<?xml version="1.0" encoding="utf-8"?>
<!-- Generator: Adobe Illustrator 25.0.0, SVG Export Plug-In . SVG Version: 6.00 Build 0)  -->
<svg version="1.1" id="Layer_1" xmlns="http://www.w3.org/2000/svg" xmlns:xlink="http://www.w3.org/1999/xlink" x="0px" y="0px"
	 viewBox="0 0 512 512" style="enable-background:new 0 0 512 512;" xml:space="preserve">
<style type="text/css">
	.st0{fill:#6F6F6F;}
	.st1{fill:#AA0000;}
	.st2{fill:#515151;}
</style>
<g>
	<path class="st0" d="M80,256c0-120.2,89.8-219.4,206-234.1c-9.8-1.2-19.8-1.9-30-1.9C125.7,20,20,125.7,20,256s105.7,236,236,236
		c10.2,0,20.2-0.6,30-1.9C169.8,475.4,80,376.2,80,256L80,256z"/>
	<path class="st1" d="M492,137c-11,0-20-9-20-20V60c0-11-9-20-20-20h-56c-11,0-20-9-20-20s9-20,20-20h56c33.1,0,60,26.9,60,60v57
		C512,128,503,137,492,137z M177.1,362.1l259-259c7.8-7.8,7.8-20.5,0-28.3s-20.5-7.8-28.3,0l-259,259c-7.8,7.8-7.8,20.5,0,28.3
		c3.9,3.9,9,5.9,14.1,5.9S173.2,366,177.1,362.1z"/>
	<path class="st2" d="M336,401c-33.1,0-60-26.9-60-60s26.9-60,60-60s60,26.9,60,60S369.1,401,336,401z M336,321c-11,0-20,9-20,20
		s9,20,20,20s20-9,20-20S347,321,336,321z M176,231c-33.1,0-60-26.9-60-60s26.9-60,60-60s60,26.9,60,60S209.1,231,176,231z M176,151
		c-11,0-20,9-20,20s9,20,20,20s20-9,20-20S187,151,176,151z M437,437c48.4-48.4,75-112.6,75-181c0-21.7-2.7-43.2-8.1-64
		c-2.8-10.7-13.7-17.1-24.4-14.4c-10.7,2.8-17.1,13.7-14.4,24.4c4.5,17.5,6.8,35.7,6.8,54c0,119.1-96.9,216-216,216S40,375.1,40,256
		S136.9,40,256,40c18.6,0,37.1,2.4,54.9,7.1c10.7,2.8,21.6-3.6,24.4-14.3s-3.6-21.6-14.3-24.4C299.9,2.8,278,0,256,0
		C187.6,0,123.3,26.6,75,75C26.6,123.3,0,187.6,0,256s26.6,132.7,75,181c48.4,48.4,112.6,75,181,75S388.7,485.4,437,437L437,437z"/>
</g>
</svg>
